images/3246186.svg

<?xml version="1.0" encoding="UTF-8"?>
<svg xmlns="http://www.w3.org/2000/svg" xmlns:xlink="http://www.w3.org/1999/xlink" width="300pt" height="300pt" viewBox="0 0 300 300" version="1.1">
<defs>
<g>
<symbol overflow="visible" id="glyph0-0">
<path style="stroke:none;" d="M 0.59375 2.125 L 0.59375 -8.46875 L 6.59375 -8.46875 L 6.59375 2.125 Z M 1.265625 1.453125 L 5.9375 1.453125 L 5.9375 -7.78125 L 1.265625 -7.78125 Z M 1.265625 1.453125 "/>
</symbol>
<symbol overflow="visible" id="glyph0-1">
<path style="stroke:none;" d="M 4.734375 -7.953125 C 3.867188 -7.953125 3.179688 -7.628906 2.671875 -6.984375 C 2.171875 -6.347656 1.921875 -5.472656 1.921875 -4.359375 C 1.921875 -3.265625 2.171875 -2.394531 2.671875 -1.75 C 3.179688 -1.113281 3.867188 -0.796875 4.734375 -0.796875 C 5.585938 -0.796875 6.265625 -1.113281 6.765625 -1.75 C 7.273438 -2.394531 7.53125 -3.265625 7.53125 -4.359375 C 7.53125 -5.472656 7.273438 -6.347656 6.765625 -6.984375 C 6.265625 -7.628906 5.585938 -7.953125 4.734375 -7.953125 Z M 4.734375 -8.90625 C 5.953125 -8.90625 6.925781 -8.492188 7.65625 -7.671875 C 8.394531 -6.847656 8.765625 -5.742188 8.765625 -4.359375 C 8.765625 -2.984375 8.394531 -1.882812 7.65625 -1.0625 C 6.925781 -0.238281 5.953125 0.171875 4.734375 0.171875 C 3.503906 0.171875 2.519531 -0.238281 1.78125 -1.0625 C 1.039062 -1.882812 0.671875 -2.984375 0.671875 -4.359375 C 0.671875 -5.742188 1.039062 -6.847656 1.78125 -7.671875 C 2.519531 -8.492188 3.503906 -8.90625 4.734375 -8.90625 Z M 4.734375 -8.90625 "/>
</symbol>
<symbol overflow="visible" id="glyph0-2">
<path style="stroke:none;" d="M 1.171875 -8.75 L 2.765625 -8.75 L 6.65625 -1.4375 L 6.65625 -8.75 L 7.796875 -8.75 L 7.796875 0 L 6.203125 0 L 2.328125 -7.3125 L 2.328125 0 L 1.171875 0 Z M 1.171875 -8.75 "/>
</symbol>
<symbol overflow="visible" id="glyph0-3">
<path style="stroke:none;" d="M 1.171875 -8.75 L 2.359375 -8.75 L 2.359375 -5.15625 L 6.65625 -5.15625 L 6.65625 -8.75 L 7.84375 -8.75 L 7.84375 0 L 6.65625 0 L 6.65625 -4.171875 L 2.359375 -4.171875 L 2.359375 0 L 1.171875 0 Z M 1.171875 -8.75 "/>
</symbol>
</g>
</defs>
<g id="surface38925">
<rect x="0" y="0" width="300" height="300" style="fill:rgb(100%,100%,100%);fill-opacity:1;stroke:none;"/>
<path style="fill:none;stroke-width:1.2;stroke-linecap:butt;stroke-linejoin:miter;stroke:rgb(0%,0%,0%);stroke-opacity:1;stroke-miterlimit:10;" d="M 261.082031 175.394531 L 264.75 143.734375 "/>
<path style="fill:none;stroke-width:1.2;stroke-linecap:butt;stroke-linejoin:miter;stroke:rgb(0%,0%,0%);stroke-opacity:1;stroke-miterlimit:10;" d="M 253.996094 171.367188 L 256.933594 146.039062 "/>
<path style=" stroke:none;fill-rule:nonzero;fill:rgb(0%,0%,0%);fill-opacity:1;" d="M 229.835938 181.6875 L 262.191406 180.910156 L 259.96875 169.882812 Z M 229.835938 181.6875 "/>
<path style="fill:none;stroke-width:1;stroke-linecap:butt;stroke-linejoin:miter;stroke:rgb(0%,0%,0%);stroke-opacity:1;stroke-miterlimit:10;" d="M 235.773438 130.460938 L 235.773438 130.460938 M 238.242188 132.164062 L 238.675781 131.21875 M 240.710938 133.871094 L 241.578125 131.972656 M 243.179688 135.574219 L 244.480469 132.730469 M 245.648438 137.277344 L 247.386719 133.484375 M 248.117188 138.984375 L 250.289062 134.242188 M 250.585938 140.6875 L 253.191406 135 M 253.054688 142.390625 L 256.09375 135.753906 M 255.523438 144.09375 L 258.996094 136.511719 M 257.992188 145.800781 L 261.898438 137.269531 M 260.460938 147.503906 L 264.804688 138.023438 M 262.40625 148.847656 L 267.09375 138.621094 "/>
<path style="fill:none;stroke-width:1.2;stroke-linecap:butt;stroke-linejoin:miter;stroke:rgb(0%,0%,0%);stroke-opacity:1;stroke-miterlimit:10;" d="M 235.773438 130.460938 L 204.527344 136.753906 "/>
<path style="fill:none;stroke-width:1.2;stroke-linecap:butt;stroke-linejoin:miter;stroke:rgb(100%,0%,0%);stroke-opacity:1;stroke-miterlimit:10;" d="M 214.195312 153.917969 L 224.984375 142.191406 "/>
<path style="fill:none;stroke-width:1.2;stroke-linecap:butt;stroke-linejoin:miter;stroke:rgb(0%,0%,0%);stroke-opacity:1;stroke-miterlimit:10;" d="M 224.984375 142.191406 L 235.773438 130.460938 "/>
<path style="fill:none;stroke-width:1.2;stroke-linecap:butt;stroke-linejoin:miter;stroke:rgb(0%,0%,0%);stroke-opacity:1;stroke-miterlimit:10;" d="M 204.527344 136.753906 L 200.859375 168.414062 "/>
<path style=" stroke:none;fill-rule:nonzero;fill:rgb(0%,0%,0%);fill-opacity:1;" d="M 204.527344 136.753906 L 184.878906 111.035156 L 177.261719 119.316406 Z M 204.527344 136.753906 "/>
<path style="fill:none;stroke-width:1.2;stroke-linecap:butt;stroke-linejoin:miter;stroke:rgb(0%,0%,0%);stroke-opacity:1;stroke-miterlimit:10;" d="M 200.859375 168.414062 L 229.835938 181.6875 "/>
<path style="fill:none;stroke-width:1;stroke-linecap:butt;stroke-linejoin:miter;stroke:rgb(0%,0%,0%);stroke-opacity:1;stroke-miterlimit:10;" d="M 200.859375 168.414062 L 200.859375 168.414062 M 198.027344 169.410156 L 198.539062 170.320312 M 195.199219 170.40625 L 196.222656 172.222656 M 192.367188 171.402344 L 193.902344 174.128906 M 189.539062 172.398438 L 191.585938 176.03125 M 186.707031 173.394531 L 189.265625 177.9375 M 183.878906 174.390625 L 186.949219 179.839844 M 181.046875 175.382812 L 184.628906 181.742188 M 178.21875 176.378906 L 182.3125 183.648438 M 175.386719 177.375 L 179.992188 185.550781 M 172.558594 178.371094 L 177.675781 187.457031 M 170.324219 179.15625 L 175.847656 188.957031 "/>
<path style="fill:none;stroke-width:1.2;stroke-linecap:butt;stroke-linejoin:miter;stroke:rgb(0%,0%,0%);stroke-opacity:1;stroke-miterlimit:10;" d="M 229.835938 181.6875 L 222.015625 167.804688 "/>
<path style="fill:none;stroke-width:1.2;stroke-linecap:butt;stroke-linejoin:miter;stroke:rgb(100%,0%,0%);stroke-opacity:1;stroke-miterlimit:10;" d="M 222.015625 167.804688 L 214.195312 153.917969 "/>
<path style=" stroke:none;fill-rule:nonzero;fill:rgb(100%,100%,100%);fill-opacity:1;" d="M 209.195312 146.917969 L 219.195312 146.917969 L 219.195312 160.917969 L 209.195312 160.917969 Z M 209.195312 146.917969 "/>
<g style="fill:rgb(100%,0%,0%);fill-opacity:1;">
  <use xlink:href="#glyph0-1" x="209.195312" y="158.056641"/>
</g>
<path style="fill:none;stroke-width:1.2;stroke-linecap:butt;stroke-linejoin:miter;stroke:rgb(0%,0%,0%);stroke-opacity:1;stroke-miterlimit:10;" d="M 169.335938 184.015625 L 169.167969 199.953125 "/>
<path style="fill:none;stroke-width:1.2;stroke-linecap:butt;stroke-linejoin:miter;stroke:rgb(100%,0%,0%);stroke-opacity:1;stroke-miterlimit:10;" d="M 169.167969 199.953125 L 168.996094 215.886719 "/>
<path style="fill:none;stroke-width:1.2;stroke-linecap:butt;stroke-linejoin:miter;stroke:rgb(0%,0%,0%);stroke-opacity:1;stroke-miterlimit:10;" d="M 176.835938 184.097656 L 176.664062 200.03125 "/>
<path style="fill:none;stroke-width:1.2;stroke-linecap:butt;stroke-linejoin:miter;stroke:rgb(100%,0%,0%);stroke-opacity:1;stroke-miterlimit:10;" d="M 176.664062 200.03125 L 176.496094 215.96875 "/>
<path style="fill:none;stroke-width:1.2;stroke-linecap:butt;stroke-linejoin:miter;stroke:rgb(0%,0%,0%);stroke-opacity:1;stroke-miterlimit:10;" d="M 173.085938 184.058594 L 159.371094 175.941406 "/>
<path style="fill:none;stroke-width:1.2;stroke-linecap:butt;stroke-linejoin:miter;stroke:rgb(0%,0%,100%);stroke-opacity:1;stroke-miterlimit:10;" d="M 159.371094 175.941406 L 145.65625 167.828125 "/>
<path style=" stroke:none;fill-rule:nonzero;fill:rgb(100%,100%,100%);fill-opacity:1;" d="M 167.746094 208.929688 L 177.746094 208.929688 L 177.746094 222.929688 L 167.746094 222.929688 Z M 167.746094 208.929688 "/>
<g style="fill:rgb(100%,0%,0%);fill-opacity:1;">
  <use xlink:href="#glyph0-1" x="167.746094" y="220.068359"/>
</g>
<path style="fill:none;stroke-width:1.2;stroke-linecap:butt;stroke-linejoin:miter;stroke:rgb(0%,0%,100%);stroke-opacity:1;stroke-miterlimit:10;" d="M 145.65625 167.828125 L 131.769531 175.648438 "/>
<path style="fill:none;stroke-width:1.2;stroke-linecap:butt;stroke-linejoin:miter;stroke:rgb(0%,0%,0%);stroke-opacity:1;stroke-miterlimit:10;" d="M 131.769531 175.648438 L 117.882812 183.46875 "/>
<path style=" stroke:none;fill-rule:nonzero;fill:rgb(100%,100%,100%);fill-opacity:1;" d="M 136.65625 160.828125 L 154.65625 160.828125 L 154.65625 174.828125 L 136.65625 174.828125 Z M 136.65625 160.828125 "/>
<g style="fill:rgb(0%,0%,100%);fill-opacity:1;">
  <use xlink:href="#glyph0-2" x="136.65625" y="171.966797"/>
  <use xlink:href="#glyph0-3" x="145.632812" y="171.966797"/>
</g>
<path style="fill:none;stroke-width:1.2;stroke-linecap:butt;stroke-linejoin:miter;stroke:rgb(0%,0%,0%);stroke-opacity:1;stroke-miterlimit:10;" d="M 117.882812 183.46875 L 90.453125 167.238281 "/>
<path style="fill:none;stroke-width:1.2;stroke-linecap:butt;stroke-linejoin:miter;stroke:rgb(0%,0%,0%);stroke-opacity:1;stroke-miterlimit:10;" d="M 90.453125 167.238281 L 90.792969 135.367188 "/>
<path style="fill:none;stroke-width:1.2;stroke-linecap:butt;stroke-linejoin:miter;stroke:rgb(0%,0%,0%);stroke-opacity:1;stroke-miterlimit:10;" d="M 82.988281 163.972656 L 83.257812 138.472656 "/>
<path style="fill:none;stroke-width:1.2;stroke-linecap:butt;stroke-linejoin:miter;stroke:rgb(0%,0%,0%);stroke-opacity:1;stroke-miterlimit:10;" d="M 62.679688 182.878906 L 90.453125 167.238281 "/>
<path style="fill:none;stroke-width:1.2;stroke-linecap:butt;stroke-linejoin:miter;stroke:rgb(0%,0%,0%);stroke-opacity:1;stroke-miterlimit:10;" d="M 90.792969 135.367188 L 63.359375 119.136719 "/>
<path style="fill:none;stroke-width:1.2;stroke-linecap:butt;stroke-linejoin:miter;stroke:rgb(0%,0%,0%);stroke-opacity:1;stroke-miterlimit:10;" d="M 63.359375 119.136719 L 49.476562 126.957031 "/>
<path style="fill:none;stroke-width:1.2;stroke-linecap:butt;stroke-linejoin:miter;stroke:rgb(0%,0%,100%);stroke-opacity:1;stroke-miterlimit:10;" d="M 49.476562 126.957031 L 35.589844 134.777344 "/>
<path style="fill:none;stroke-width:1.2;stroke-linecap:butt;stroke-linejoin:miter;stroke:rgb(0%,0%,0%);stroke-opacity:1;stroke-miterlimit:10;" d="M 64.265625 127.234375 L 53.15625 133.492188 "/>
<path style="fill:none;stroke-width:1.2;stroke-linecap:butt;stroke-linejoin:miter;stroke:rgb(0%,0%,100%);stroke-opacity:1;stroke-miterlimit:10;" d="M 53.15625 133.492188 L 42.046875 139.75 "/>
<path style="fill:none;stroke-width:1.2;stroke-linecap:butt;stroke-linejoin:miter;stroke:rgb(0%,0%,100%);stroke-opacity:1;stroke-miterlimit:10;" d="M 35.589844 134.777344 L 35.421875 150.714844 "/>
<path style="fill:none;stroke-width:1.2;stroke-linecap:butt;stroke-linejoin:miter;stroke:rgb(0%,0%,0%);stroke-opacity:1;stroke-miterlimit:10;" d="M 35.421875 150.714844 L 35.25 166.648438 "/>
<path style=" stroke:none;fill-rule:nonzero;fill:rgb(100%,100%,100%);fill-opacity:1;" d="M 31.589844 127.777344 L 40.589844 127.777344 L 40.589844 141.777344 L 31.589844 141.777344 Z M 31.589844 127.777344 "/>
<g style="fill:rgb(0%,0%,100%);fill-opacity:1;">
  <use xlink:href="#glyph0-2" x="31.589844" y="138.916016"/>
</g>
<path style="fill:none;stroke-width:1.2;stroke-linecap:butt;stroke-linejoin:miter;stroke:rgb(0%,0%,0%);stroke-opacity:1;stroke-miterlimit:10;" d="M 35.25 166.648438 L 62.679688 182.878906 "/>
<path style="fill:none;stroke-width:1.2;stroke-linecap:butt;stroke-linejoin:miter;stroke:rgb(0%,0%,0%);stroke-opacity:1;stroke-miterlimit:10;" d="M 41.8125 161.816406 L 63.757812 174.800781 "/>
<path style="fill:none;stroke-width:1.2;stroke-linecap:butt;stroke-linejoin:miter;stroke:rgb(0%,0%,0%);stroke-opacity:1;stroke-miterlimit:10;" d="M 179.949219 111.597656 L 164.742188 116.359375 "/>
<path style="fill:none;stroke-width:1.2;stroke-linecap:butt;stroke-linejoin:miter;stroke:rgb(100%,0%,0%);stroke-opacity:1;stroke-miterlimit:10;" d="M 164.742188 116.359375 L 149.53125 121.121094 "/>
<path style="fill:none;stroke-width:1.2;stroke-linecap:butt;stroke-linejoin:miter;stroke:rgb(0%,0%,0%);stroke-opacity:1;stroke-miterlimit:10;" d="M 182.191406 118.753906 L 166.980469 123.515625 "/>
<path style="fill:none;stroke-width:1.2;stroke-linecap:butt;stroke-linejoin:miter;stroke:rgb(100%,0%,0%);stroke-opacity:1;stroke-miterlimit:10;" d="M 166.980469 123.515625 L 151.773438 128.28125 "/>
<path style="fill:none;stroke-width:1.2;stroke-linecap:butt;stroke-linejoin:miter;stroke:rgb(0%,0%,0%);stroke-opacity:1;stroke-miterlimit:10;" d="M 181.070312 115.175781 L 184.550781 99.625 "/>
<path style="fill:none;stroke-width:1.2;stroke-linecap:butt;stroke-linejoin:miter;stroke:rgb(100%,0%,0%);stroke-opacity:1;stroke-miterlimit:10;" d="M 184.550781 99.625 L 188.027344 84.070312 "/>
<path style=" stroke:none;fill-rule:nonzero;fill:rgb(100%,100%,100%);fill-opacity:1;" d="M 140.652344 117.703125 L 150.652344 117.703125 L 150.652344 131.703125 L 140.652344 131.703125 Z M 140.652344 117.703125 "/>
<g style="fill:rgb(100%,0%,0%);fill-opacity:1;">
  <use xlink:href="#glyph0-1" x="140.652344" y="128.841797"/>
</g>
<path style=" stroke:none;fill-rule:nonzero;fill:rgb(100%,100%,100%);fill-opacity:1;" d="M 179.027344 77.070312 L 198.027344 77.070312 L 198.027344 91.070312 L 179.027344 91.070312 Z M 179.027344 77.070312 "/>
<g style="fill:rgb(100%,0%,0%);fill-opacity:1;">
  <use xlink:href="#glyph0-1" x="179.027344" y="88.208984"/>
  <use xlink:href="#glyph0-3" x="188.472656" y="88.208984"/>
</g>
</g>
</svg>

<svg xmlns="http://www.w3.org/2000/svg" xmlns:xlink="http://www.w3.org/1999/xlink" width="300pt" height="300pt" viewBox="0 0 300 300"><defs><symbol overflow="visible"><path d="M.594 2.125V-8.47h6V2.126zm.672-.672h4.671V-7.78h-4.67zm0 0"/></symbol><symbol overflow="visible" id="a"><path d="M4.734-7.953c-.867 0-1.554.324-2.062.97-.5.635-.75 1.51-.75 2.624 0 1.094.25 1.965.75 2.61.508.637 1.195.953 2.062.953.852 0 1.532-.316 2.032-.953.507-.645.765-1.516.765-2.61 0-1.113-.257-1.988-.764-2.624-.5-.645-1.18-.97-2.032-.97zm0-.953c1.22 0 2.192.414 2.922 1.234.74.824 1.11 1.93 1.11 3.313 0 1.376-.37 2.477-1.11 3.298C6.926-.24 5.953.17 4.734.17c-1.23 0-2.214-.41-2.953-1.234C1.04-1.882.673-2.984.673-4.36c0-1.382.367-2.488 1.11-3.312.738-.82 1.722-1.234 2.952-1.234zm0 0"/></symbol><symbol overflow="visible" id="b"><path d="M1.172-8.75h1.594l3.89 7.313V-8.75h1.14V0H6.204L2.328-7.313V0H1.172zm0 0"/></symbol><symbol overflow="visible" id="c"><path d="M1.172-8.75H2.36v3.594h4.296V-8.75h1.188V0H6.656v-4.172H2.36V0H1.17zm0 0"/></symbol></defs><g><path fill="#fff" d="M0 0h300v300H0z"/><path d="M261.082 175.395l3.668-31.66M253.996 171.367l2.938-25.328" stroke-width="1.2" stroke="#000" stroke-miterlimit="10" fill="none"/><path d="M229.836 181.688l32.355-.778-2.22-11.027zm0 0"/><path d="M235.773 130.46m2.47 1.704l.433-.945m2.035 2.65l.868-1.897m1.602 3.6l1.3-2.843m1.168 4.547l1.74-3.793m.73 5.5l2.17-4.742m.298 6.446L253.19 135m-.135 7.39l3.04-6.636m-.572 8.34l3.473-7.582m-1.004 9.29l3.906-8.532m-1.437 10.234l4.345-9.48m-2.4 10.824l4.69-10.227" stroke="#000" stroke-miterlimit="10" fill="none"/><path d="M235.773 130.46l-31.246 6.294" stroke-width="1.2" stroke="#000" stroke-miterlimit="10" fill="none"/><path d="M214.195 153.918l10.79-11.727" stroke-width="1.2" stroke="#f00" stroke-miterlimit="10" fill="none"/><path d="M224.984 142.19l10.79-11.73M204.527 136.754l-3.668 31.66" stroke-width="1.2" stroke="#000" stroke-miterlimit="10" fill="none"/><path d="M204.527 136.754l-19.648-25.72-7.618 8.282zm0 0"/><path d="M200.86 168.414l28.976 13.274" stroke-width="1.2" stroke="#000" stroke-miterlimit="10" fill="none"/><path d="M200.86 168.414m-2.833.996l.512.91m-3.34.086l1.023 1.817m-3.856-.82l1.535 2.726m-4.363-1.732l2.046 3.633m-4.88-2.635l2.56 4.542m-5.387-3.546l3.07 5.45m-5.903-4.457l3.582 6.36m-6.41-5.364l4.093 7.268m-6.926-6.273l4.605 8.176m-7.433-7.18l5.116 9.087m-7.352-8.3l5.524 9.8" stroke="#000" stroke-miterlimit="10" fill="none"/><path d="M229.836 181.688l-7.82-13.883" stroke-width="1.2" stroke="#000" stroke-miterlimit="10" fill="none"/><path d="M222.016 167.805l-7.82-13.887" stroke-width="1.2" stroke="#f00" stroke-miterlimit="10" fill="none"/><path d="M209.195 146.918h10v14h-10zm0 0" fill="#fff"/><use xlink:href="#a" x="209.195" y="158.057" fill="#f00"/><path d="M169.336 184.016l-.168 15.937" stroke-width="1.2" stroke="#000" stroke-miterlimit="10" fill="none"/><path d="M169.168 199.953l-.172 15.934" stroke-width="1.2" stroke="#f00" stroke-miterlimit="10" fill="none"/><path d="M176.836 184.098l-.172 15.933" stroke-width="1.2" stroke="#000" stroke-miterlimit="10" fill="none"/><path d="M176.664 200.03l-.168 15.94" stroke-width="1.2" stroke="#f00" stroke-miterlimit="10" fill="none"/><path d="M173.086 184.06l-13.715-8.12" stroke-width="1.2" stroke="#000" stroke-miterlimit="10" fill="none"/><path d="M159.37 175.94l-13.714-8.112" stroke-width="1.2" stroke="#00f" stroke-miterlimit="10" fill="none"/><path d="M167.746 208.93h10v14h-10zm0 0" fill="#fff"/><use xlink:href="#a" x="167.746" y="220.068" fill="#f00"/><path d="M145.656 167.828l-13.886 7.82" stroke-width="1.2" stroke="#00f" stroke-miterlimit="10" fill="none"/><path d="M131.77 175.648l-13.887 7.82" stroke-width="1.2" stroke="#000" stroke-miterlimit="10" fill="none"/><path d="M136.656 160.828h18v14h-18zm0 0" fill="#fff"/><g fill="#00f"><use xlink:href="#b" x="136.656" y="171.967"/><use xlink:href="#c" x="145.633" y="171.967"/></g><path d="M117.883 183.47l-27.43-16.232M90.453 167.238l.34-31.87M82.988 163.973l.27-25.5M62.68 182.88l27.773-15.642M90.793 135.367l-27.434-16.23M63.36 119.137l-13.883 7.82" stroke-width="1.2" stroke="#000" stroke-miterlimit="10" fill="none"/><path d="M49.477 126.957l-13.887 7.82" stroke-width="1.2" stroke="#00f" stroke-miterlimit="10" fill="none"/><path d="M64.266 127.234l-11.11 6.258" stroke-width="1.2" stroke="#000" stroke-miterlimit="10" fill="none"/><path d="M53.156 133.492l-11.11 6.258M35.59 134.777l-.168 15.938" stroke-width="1.2" stroke="#00f" stroke-miterlimit="10" fill="none"/><path d="M35.422 150.715l-.172 15.933" stroke-width="1.2" stroke="#000" stroke-miterlimit="10" fill="none"/><path d="M31.59 127.777h9v14h-9zm0 0" fill="#fff"/><use xlink:href="#b" x="31.59" y="138.916" fill="#00f"/><path d="M35.25 166.648l27.43 16.23M41.813 161.816L63.758 174.8M179.95 111.598l-15.208 4.76" stroke-width="1.2" stroke="#000" stroke-miterlimit="10" fill="none"/><path d="M164.742 116.36l-15.21 4.76" stroke-width="1.2" stroke="#f00" stroke-miterlimit="10" fill="none"/><path d="M182.19 118.754l-15.21 4.762" stroke-width="1.2" stroke="#000" stroke-miterlimit="10" fill="none"/><path d="M166.98 123.516l-15.207 4.765" stroke-width="1.2" stroke="#f00" stroke-miterlimit="10" fill="none"/><path d="M181.07 115.176l3.48-15.55" stroke-width="1.2" stroke="#000" stroke-miterlimit="10" fill="none"/><path d="M184.55 99.625l3.477-15.555" stroke-width="1.2" stroke="#f00" stroke-miterlimit="10" fill="none"/><path d="M140.652 117.703h10v14h-10zm0 0" fill="#fff"/><use xlink:href="#a" x="140.652" y="128.842" fill="#f00"/><path d="M179.027 77.07h19v14h-19zm0 0" fill="#fff"/><g fill="#f00"><use xlink:href="#a" x="179.027" y="88.209"/><use xlink:href="#c" x="188.473" y="88.209"/></g></g></svg>
